X:114
T:B114-  De'il take the war
Q:1/4=120
L:1/4
M:C
K:C
c(c/4d/4e/2)d3/2c/2|c/2G/2 (A/4B/4)c/2 GE|\
(E/2G/2) (G/2c/2) (c/2d/2) (d/2e/2)|\
(f/2e/2) (d/2c/2)d2|c(c/4e/4)f/2d3/2c/2|\
(c/2G/2) (A/4B/4)c/2GE|\
(E/2G/2) (G/2c/2) (c/2d/2) (d/2e/2)|\
(g/4f/4e/2) (d/2c/2)c2:|\
e(e/4f/4)g/2 e/2c/2 e/2c/2|B(B/4c/4)d/2 d/2B/2 d/2B/2|\
ee/2c/2 dd/2B/2|c(d/4c/4)(B/4A/4)A3/2G/2|\
EG(G/4A/4)G/2 c/2G/2|E/2G/2 (G/4A/4)G/2G3/2G/2|\
Acd3/2A/2|d3/4e/4 d/2c/2B3/2A/2|GG/2E/2Gc/2d/2|\
(f/2e/2) (d/2c/2)c2|]



